krita/pics/misc-dark/dark_pathpoint-merge.svg

<svg xmlns:dc="http://purl.org/dc/elements/1.1/" xmlns:cc="http://creativecommons.org/ns#" xmlns:rdf="http://www.w3.org/1999/02/22-rdf-syntax-ns#" xmlns="http://www.w3.org/2000/svg" xmlns:sodipodi="http://sodipodi.sourceforge.net/DTD/sodipodi-0.dtd" xmlns:inkscape="http://www.inkscape.org/namespaces/inkscape" viewBox="0 0 16 16" version="1.1" id="svg8" sodipodi:docname="dark_pathpoint-merge.svg" width="16" height="16" inkscape:version="0.92.1 r15371"><metadata id="metadata12"><rdf:RDF><cc:Work><dc:format>image/svg+xml</dc:format><dc:type rdf:resource="http://purl.org/dc/dcmitype/StillImage"/><dc:title/><dc:date>2017</dc:date><dc:creator><cc:Agent><dc:title>Timothée Giet</dc:title></cc:Agent></dc:creator><dc:description>Based on Breeze icons</dc:description><cc:license rdf:resource="http://creativecommons.org/licenses/by-sa/4.0/"/></cc:Work><cc:License rdf:about="http://creativecommons.org/licenses/by-sa/4.0/"><cc:permits rdf:resource="http://creativecommons.org/ns#Reproduction"/><cc:permits rdf:resource="http://creativecommons.org/ns#Distribution"/><cc:requires rdf:resource="http://creativecommons.org/ns#Notice"/><cc:requires rdf:resource="http://creativecommons.org/ns#Attribution"/><cc:permits rdf:resource="http://creativecommons.org/ns#DerivativeWorks"/><cc:requires rdf:resource="http://creativecommons.org/ns#ShareAlike"/></cc:License></rdf:RDF></metadata><sodipodi:namedview pagecolor="#ffffff" bordercolor="#666666" borderopacity="1" objecttolerance="10" gridtolerance="10" guidetolerance="10" inkscape:pageopacity="0" inkscape:pageshadow="2" inkscape:window-width="1884" inkscape:window-height="1051" id="namedview10" showgrid="true" inkscape:zoom="10.727273" inkscape:cx="-15.101695" inkscape:cy="11" inkscape:window-x="0" inkscape:window-y="0" inkscape:window-maximized="1" inkscape:current-layer="svg8"><inkscape:grid type="xygrid" id="grid4489"/></sodipodi:namedview><path style="color:#373737;fill:currentColor;fill-opacity:1;stroke:none" d="M0 0v3h3V2h10v1h3V0h-3v1H3V0zm1 1h1v1H1zm13 0h1v1h-1zM6 12v2H0v1h6v1h4v-1h6v-1h-6v-2zm1 1h2v2H7z" id="path4" inkscape:connector-curvature="0"/><path style="color:#3daee9;fill:currentColor;fill-opacity:1;stroke:none" d="m5 6 3 5 3-5z" id="path6" inkscape:connector-curvature="0" sodipodi:nodetypes="cccc"/></svg>

<?xml version="1.0" encoding="UTF-8" standalone="no"?>
<svg
   xmlns:dc="http://purl.org/dc/elements/1.1/"
   xmlns:cc="http://creativecommons.org/ns#"
   xmlns:rdf="http://www.w3.org/1999/02/22-rdf-syntax-ns#"
   xmlns:svg="http://www.w3.org/2000/svg"
   xmlns="http://www.w3.org/2000/svg"
   xmlns:sodipodi="http://sodipodi.sourceforge.net/DTD/sodipodi-0.dtd"
   xmlns:inkscape="http://www.inkscape.org/namespaces/inkscape"
   viewBox="0 0 16 16"
   version="1.1"
   id="svg8"
   sodipodi:docname="dark_pathpoint-merge.svg"
   width="16"
   height="16"
   inkscape:version="0.92.1 r15371">
  <metadata
     id="metadata12">
    <rdf:RDF>
      <cc:Work
         rdf:about="">
        <dc:format>image/svg+xml</dc:format>
        <dc:type
           rdf:resource="http://purl.org/dc/dcmitype/StillImage" />
        <dc:title></dc:title>
        <dc:date>2017</dc:date>
        <dc:creator>
          <cc:Agent>
            <dc:title>Timothée Giet</dc:title>
          </cc:Agent>
        </dc:creator>
        <dc:description>Based on Breeze icons</dc:description>
        <cc:license
           rdf:resource="http://creativecommons.org/licenses/by-sa/4.0/" />
      </cc:Work>
      <cc:License
         rdf:about="http://creativecommons.org/licenses/by-sa/4.0/">
        <cc:permits
           rdf:resource="http://creativecommons.org/ns#Reproduction" />
        <cc:permits
           rdf:resource="http://creativecommons.org/ns#Distribution" />
        <cc:requires
           rdf:resource="http://creativecommons.org/ns#Notice" />
        <cc:requires
           rdf:resource="http://creativecommons.org/ns#Attribution" />
        <cc:permits
           rdf:resource="http://creativecommons.org/ns#DerivativeWorks" />
        <cc:requires
           rdf:resource="http://creativecommons.org/ns#ShareAlike" />
      </cc:License>
    </rdf:RDF>
  </metadata>
  <sodipodi:namedview
     pagecolor="#ffffff"
     bordercolor="#666666"
     borderopacity="1"
     objecttolerance="10"
     gridtolerance="10"
     guidetolerance="10"
     inkscape:pageopacity="0"
     inkscape:pageshadow="2"
     inkscape:window-width="1884"
     inkscape:window-height="1051"
     id="namedview10"
     showgrid="true"
     inkscape:zoom="10.727273"
     inkscape:cx="-15.101695"
     inkscape:cy="11"
     inkscape:window-x="0"
     inkscape:window-y="0"
     inkscape:window-maximized="1"
     inkscape:current-layer="svg8">
    <inkscape:grid
       type="xygrid"
       id="grid4489" />
  </sodipodi:namedview>
  <defs
     id="defs3051">
    <style
       type="text/css"
       id="current-color-scheme">
      .ColorScheme-Text {
        color:#373737;
      }
      .ColorScheme-Highlight {
        color:#3daee9;
      }
      </style>
  </defs>
  <path
     style="color:#373737;fill:currentColor;fill-opacity:1;stroke:none"
     d="M 0,0 V 3 H 3 V 2 h 3 4 3 v 1 h 3 V 0 H 13 V 1 H 10 6 3 V 0 Z M 1,1 H 2 V 2 H 1 Z m 13,0 h 1 V 2 H 14 Z M 6,12 v 2 H 0 v 1 h 6 v 1 h 4 v -1 h 6 v -1 h -6 v -2 z m 1,1 h 2 v 1 1 H 7 Z"
     class="ColorScheme-Text"
     id="path4"
     inkscape:connector-curvature="0" />
  <path
     style="color:#3daee9;fill:currentColor;fill-opacity:1;stroke:none"
     d="m 5,6 3,5 3,-5 z"
     class="ColorScheme-Highlight"
     id="path6"
     inkscape:connector-curvature="0"
     sodipodi:nodetypes="cccc" />
</svg>
